src/resources/assets/folder-open.svg

<svg xmlns="http://www.w3.org/2000/svg" width="16" height="16"><path d="M 13.003906 6 L 13.003906 5.996094 C 13.003906 4.890625 12.109375 3.996094 11.003906 3.996094 L 6.175781 3.996094 L 5.066406 3.109375 C 4.976562 3.039062 4.867188 3 4.753906 3 L 3 3 C 1.894531 3 1 3.894531 1 5 L 1 11 C 1 12.105469 1.894531 13 3 13 L 12.25 13 C 12.917969 13 13.503906 12.558594 13.691406 11.921875 L 14.859375 7.921875 C 15.140625 6.960938 14.417969 6 13.417969 6 Z M 3 4 L 4.578125 4 L 5.6875 4.886719 C 5.777344 4.957031 5.886719 4.996094 6 4.996094 L 11.003906 4.996094 C 11.554688 4.996094 12.003906 5.445312 12.003906 5.996094 L 12.003906 6 L 4.25 6 C 3.582031 6 2.996094 6.441406 2.808594 7.078125 L 2 9.855469 L 2 5 C 2 4.449219 2.449219 4 3 4 Z M 3.769531 7.359375 C 3.832031 7.148438 4.027344 7 4.25 7 L 13.417969 7 C 13.753906 7 13.992188 7.320312 13.898438 7.640625 L 12.730469 11.640625 C 12.667969 11.851562 12.472656 12 12.25 12 L 3.082031 12 C 2.75 12 2.511719 11.679688 2.601562 11.359375 Z M 3.769531 7.359375" fill="#ddd"/></svg>

<svg xmlns="http://www.w3.org/2000/svg" width="16" height="16"><path d="M13.004 6v-.004c0-1.105-.895-2-2-2H6.176l-1.11-.887A.507.507 0 004.754 3H3c-1.105 0-2 .895-2 2v6c0 1.105.895 2 2 2h9.25c.668 0 1.254-.441 1.441-1.078l1.168-4A1.501 1.501 0 0013.418 6zM3 4h1.578l1.11.887c.09.07.199.11.312.11h5.004c.55 0 1 .448 1 1V6H4.25c-.668 0-1.254.441-1.441 1.078L2 9.855V5c0-.55.45-1 1-1zm.77 3.36A.503.503 0 014.25 7h9.168a.5.5 0 01.48.64l-1.168 4a.503.503 0 01-.48.36H3.082a.503.503 0 01-.48-.64zm0 0" fill="#ddd"/></svg>
